X: 1
T:Harvest Home
M:C|
L:1/8
C:Trad.
K:D
vAF|"D"DAFA DAFA|defe dcBA|"A"eAfa gafa|(3efe (3dcB (3ABA (3GFE|!
"D"DAFA DAFA|defe dcBA|"A"eAfa gafa|"D"d2ddd2:|!
|:vcd|"A"eA (3AAA "D"fA (3AAA|"G"gAfA "A"eA (3AAA|eAfA gAfA|(3efe (3dcB
(3ABA 3GFE|!"D"DAFA DAFA|defe fcBA|"A"eAfA gece|"D"d2ddd2!
